svgs/thin/folder-image.svg

<svg xmlns="http://www.w3.org/2000/svg" viewBox="0 0 512 512"><!--! Font Awesome Pro 6.3.0 by @fontawesome - https://fontawesome.com License - https://fontawesome.com/license (Commercial License) Copyright 2023 Fonticons, Inc. --><path d="M464 96h-192L217.4 41.38C211.4 35.37 203.2 32 194.7 32H48C21.49 32 0 53.49 0 80v352C0 458.5 21.49 480 48 480h416c26.51 0 48-21.49 48-48v-288C512 117.5 490.5 96 464 96zM496 432c0 17.67-14.33 32-32 32h-416c-17.67 0-32-14.33-32-32v-352c0-17.67 14.33-32 32-32h140.1c8.484 0 16.62 3.371 22.62 9.371L265.4 112H464c17.67 0 32 14.33 32 32V432zM313.3 218.7c-8.938-13.38-31-13.38-39.94 0L217 303.3l-15.59-21.39c-9.062-12.34-29.75-12.34-38.81 0l-70 96.02c-5.344 7.359-6.094 16.94-1.969 24.98C94.72 410.1 102.9 416 112 416h288c8.844 0 16.94-4.844 21.12-12.66c4.219-7.812 3.781-17.27-1.156-24.66L313.3 218.7zM407.1 395.8C405.7 398.3 402.9 400 400 400h-288c-3.031 0-5.75-1.672-7.125-4.391c-1.375-2.688-1.125-5.875 .6562-8.312l70-96C177.1 289.2 179.4 288 181.1 288c2.594 0 4.938 1.203 6.469 3.297l29.09 39.92l69.13-103.7c3-4.469 10.31-4.469 13.31 0l106.7 160C408.3 390 408.5 393.2 407.1 395.8zM128 248c22.06 0 40-17.94 40-40S150.1 168 128 168S88 185.9 88 208S105.9 248 128 248zM128 184c13.22 0 24 10.77 24 24S141.2 232 128 232S104 221.2 104 208S114.8 184 128 184z"/></svg>

<svg xmlns="http://www.w3.org/2000/svg" viewBox="0 0 512 512"><!-- Font Awesome Pro 6.0.0-alpha2 by @fontawesome - https://fontawesome.com License - https://fontawesome.com/license (Commercial License) --><path d="M464 96H272L217.375 41.375C211.371 35.371 203.234 32 194.746 32H48C21.492 32 0 53.492 0 80V432C0 458.508 21.492 480 48 480H464C490.508 480 512 458.508 512 432V144C512 117.492 490.508 96 464 96ZM496 432C496 449.672 481.672 464 464 464H48C30.328 464 16 449.672 16 432V80C16 62.328 30.328 48 48 48H188.117C196.602 48 204.742 51.371 210.742 57.371L265.371 112H464C481.672 112 496 126.328 496 144V432ZM313.312 218.688C304.375 205.312 282.312 205.312 273.375 218.688L217 303.25L201.406 281.859C192.344 269.516 171.656 269.516 162.594 281.859L92.594 377.875C87.25 385.234 86.5 394.813 90.625 402.859C94.719 410.969 102.906 416 112 416H400C408.844 416 416.938 411.156 421.125 403.344C425.344 395.531 424.906 386.078 419.969 378.688L313.312 218.688ZM407.062 395.75L407.031 395.781C405.656 398.375 402.938 400 400 400H112C108.969 400 106.25 398.328 104.875 395.609C103.5 392.922 103.75 389.734 105.531 387.297L175.531 291.297C177.062 289.203 179.406 288 182 288C184.594 288 186.938 289.203 188.469 291.297L217.562 331.219L286.687 227.562C289.687 223.094 297 223.094 300 227.562L406.656 387.578C408.312 390.031 408.469 393.156 407.062 395.75ZM128 248C150.062 248 168 230.062 168 208S150.062 168 128 168S88 185.938 88 208S105.938 248 128 248ZM128 184C141.219 184 152 194.766 152 208S141.219 232 128 232S104 221.234 104 208S114.781 184 128 184Z"/></svg>
